!!!COM: Hugo Wolf
!!!CNT: Deutscher
!!!TXO: Deutsche 
!!!OTL: Ob Der Koran von Ewigkeit Sei?
!!!ODT: 1889/01/17
!!!ONM: No. 34
!!!LYR: Johann Wolfgang von Goethe
!!!ENC: Brian Bice
!!!YOR: 45 Songs on Poems of Goethe and Eichendorff, Dover Publications, 1995
!!NB: Vocal melody and text only encoded.
**kern	**silbe
*clefG2	*
*k[]	*
*M6/8	*
=1	=1
{4a	{Ob
8b	der
8cc	Ko-
8dd	-ran
8dd#	von
=2	=2
8ee	E-
8ff	-wig-
8ee	-keit
4.ee}	sei?}
=4	=4
{4a	{dar-
8a	-nach
8r	.
8g	frag
8f	ich
=5	=5
[4.e	nicht!
8e]}	|}
8r	.
8r	.
=6	=6
{4a	{Ob
8b	der
8cc	Ko-
8dd	-ran
8ee	ge-
=7	=7
8ff#	-schaf-
8gg	|
8ff#	-fen
4.ff#}	sei?}
=9	=9
4r	.
8r	.
{4.g	{das
=10	=10
4g	weiss
8dd	ich
4e}	nicht!}
8r	.
=11	=11
{8c	{Dass
8d	er
8e	das
8f	Buch
8g	|
8a	der
=12	=12
4cc	Bu2-
8d	-cher
8d	sei,
8dd	glaub
8cc	|
=13	=13
8a	ich
8g	aus
8f#	Mos-
8f#	-le-
8g	-mi-
8a	-nen-
=14	=14
4.d}	-pflicht.}
8r	.
{4B-	{Dass
=15	=15
8B-	a-
8B-	-ber
8B-	der
4g	Wein
8g	von
=16	=16
8.g	E-
16c#	-wig-
8c#	-leit
4c#	sei,
[8f	dar-
=17	=17
8f]	|
4e	-an
4a	zweifl'
8a	ich
=18	=18
8d}	nicht;}
8r	.
8r	.
{8d	{o-
8d	-der
8e	dass
=19	=19
8f#	er
8g	vor
8a	den
8cc	En-
8b-	-geln
8a	ge-
=20	=20
4a	-schaf-
8d	-fen
4d	sei,
[8bn	ist
=21	=21
8bn]	|
8b	viel-
8a	-leicht
8g#	auch
8a	kein
8b	Ge-
=22	=22
4.f}	-dicht.}
8r	.
8r	.
{8f	{Der
=23	=23
8.dd	Trin-
16dd	-ken-
8dd	-de,
8dd	wie
8dd	es
8dd	auch
=24	=24
4dd	im-
8ee	-mer
4a	sei,
8b	blickt
=25	=25
4cc#	Gott
[8ee	fri-
8ee]	|
8cc#	-scher
8a	ins
=26	=26
4f#	An-
8cc#	-ge-
4.a}	-sicht.}
*-	*-
